<?xml version="1.0" encoding="UTF-8"?>
<map version="1.8" tiledversion="1.8.0" orientation="orthogonal" renderorder="right-down" width="26" height="22" tilewidth="8" tileheight="8" infinite="0" nextlayerid="2" nextobjectid="1">
 <tileset firstgid="1" name="MapTiles" tilewidth="8" tileheight="8" tilecount="1404" columns="36">
  <image source="../Assets/Images/MapTiles.png" width="288" height="312"/>
 </tileset>
 <layer id="1" name="Tile Layer 1" width="26" height="22">
  <data encoding="csv">
0,25,66,0,0,715,28,0,0,0,25,25,64,26,27,43,45,46,8,8,8,8,152,153,152,45,
0,0,100,26,26,65,138,61,171,26,26,26,138,0,46,223,117,82,8,8,9,46,223,117,115,117,
0,0,29,61,62,207,64,241,242,66,0,0,7,7,119,152,45,11,7,8,120,11,0,0,0,0,
0,0,29,205,134,135,29,61,63,136,170,62,63,0,46,115,224,84,7,8,8,84,0,0,0,0,
64,26,138,136,26,26,137,241,135,30,97,98,245,4,114,0,0,46,152,44,153,84,0,0,0,0,
136,58,164,165,20,60,58,59,20,59,241,134,135,5,860,861,717,11,115,116,117,11,0,0,0,0,
0,23,127,129,21,23,23,24,0,5,0,0,0,5,823,825,7,83,8,9,7,120,0,0,0,0,
0,23,58,131,19,96,23,0,0,40,2,3,40,42,0,10,0,11,0,0,0,0,0,0,0,0,
58,96,58,164,57,94,132,0,715,1,37,38,147,2,152,44,45,11,0,0,0,0,0,0,0,0,
24,23,23,91,93,23,21,754,717,4,73,74,75,4,115,116,224,84,0,0,0,0,0,0,0,0,
0,23,23,127,236,96,715,716,716,112,109,110,111,3,43,44,153,120,0,0,0,0,0,0,0,0,
0,23,94,20,20,131,20,2,2,2,114,2,2,47,223,116,224,9,9,48,0,0,0,0,0,0,
0,23,130,59,20,20,20,2,114,112,2,2,42,11,0,0,0,0,0,17,0,0,0,0,0,0,
0,23,720,124,14,14,14,14,158,50,51,1,5,11,0,0,0,0,0,16,0,0,0,0,0,0,
0,23,55,57,0,0,0,0,85,86,233,54,112,118,8,14,158,159,14,90,0,0,0,0,0,0,
58,131,235,129,0,0,0,0,85,86,87,17,0,0,0,0,85,87,715,17,0,0,0,0,0,0,
23,0,0,58,21,14,14,13,229,122,123,17,0,52,14,14,229,123,54,17,0,0,0,0,0,0,
23,21,0,23,0,0,0,0,0,0,0,17,0,17,52,15,49,50,159,126,0,0,0,0,0,0,
23,0,0,23,0,0,0,0,0,0,0,124,14,125,15,52,229,122,230,54,0,0,0,0,0,0,
23,0,0,23,58,60,0,0,0,0,0,0,0,0,0,18,0,0,0,124,54,0,0,0,0,0,
23,0,22,23,23,23,0,0,0,0,0,0,0,0,0,0,0,0,0,0,17,0,0,0,0,0,
130,20,20,131,132,24,0,0,0,0,0,0,0,0,0,0,0,0,0,13,126,0,0,0,0,0
</data>
 </layer>
</map>
